!!!!SEGMENT: pl-kc--40102-iii-1-saf--001-049_zielenski-mikolaj--offertoria-totius-anni-domine-ad-adiuvandum-me-festina.krn
!!!cenid: 16xx:1528
!!!COM: Zieleński, Mikołaj
!!!COM-rismID: pe30013481
!!!CDT: <1611->1611
!!!CNT: Polish
!!!GTL: Offertoria totius anni
!!!OTL: Domine ad adiuvandum me festina
!!!OMV: 049
!!!PDT: 1611
!!!AGN:
!!!SMS-siglum: PL-Kc
!!!SMS-shelfmark: 40102 III/1 Saf.
!!!SMS-shelfwork: 001-049 G
!!!SMS-variant:
!!!SMS-altvar:
!!!NIFC-rismSourceID: 990069886
!!!NIFC-rismChildID: 990069886
!!!NIFC-islandoraID:
!!!URL-pdf-islandora:
!!!URL-scan: https://cyfrowe.mnk.pl/dlibra/publication/24235/edition/23926/content?ref=desc @EN{Scan on The National Museum in Krakow Website} @PL{Skany w portalu Biblioteka Cyfrowa Muzeum Narodowego w Krakowie}
!!!ONB-nifc: UWAGA: str. 41-42 (Alleluia i Deo gratias to osobny utwór). Uwaga: W xml metrum 2/1 do źródłowego C| i odpowiednio 3/1 do 3/2
!!!AIN: 4 organ
!!!key: F:lyd
**kern	**kern	**kern	**kern
*group1	*group1	*group1	*group1
*part4	*part3	*part2	*part1
*staff4	*staff3	*staff2	*staff1
*I""Organo	*	*	*
*Iorgan	*Iorgan	*Iorgan	*Iorgan
*ICklav	*ICklav	*ICklav	*ICklav
*clefF5	*clefC3	*clefF3	*clefG2
*k[b-]	*k[b-]	*k[b-]	*k[b-]
*F:lyd	*F:lyd	*F:lyd	*F:lyd
*M2/1	*M2/1	*M2/1	*M2/1
*met(C|)	*met(C|)	*met(C|)	*met(C|)
=1	=1	=1	=1
!	!	!LO:TX:a:t=Domine ad adiuuandum me feſtina.	!
1r	1r	2.F/	2.cc\
.	.	4F/	4cc\
!	!	!	!LO:TX:a:t=A 8.
2.FF/	2.f\	2F/	2cc\
.	.	1F\	1ff\
4FF/	4f\	.	.
=2-	=2-	=2-	=2-
2FF/	2f\	.	.
2BB-/	2f\	1F	1dd
2BB-/	2d\	.	.
2GG/	2g\	2G\	2ee\
=3	=3	=3	=3
*	*	*	*lig
1D	2.f\	0A	1ff
.	8e\	.	.
.	8d\	.	.
1AA	2c/	.	1ee
.	2c/	.	.
*	*	*	*Xlig
=4-	=4-	=4-	=4-
1.BB-	1.d	0D	1.dd
2FF/	2d\	.	[<2ff\
=5	=5	=5	=5
!	!	!LO:N:acc=#	!
0GG	0d	2BBn/	2ff\]
.	.	2C/	2ee\
.	.	1D	1dd
*custos:CC	*custos:g	*custos:C	*custos:ee
!LO:LB:g=original	!LO:LB:g=original	!LO:LB:g=original	!LO:LB:g=original
=6-	=6-	=6-	=6-
*M3/1	*M3/1	*M3/1	*M3/1
!LO:N:vis=0	!	!	!
0.CC	0.g	0.C	0.ee
=7-	=7-	=7-	=7-
0.r	0.r	1.c	1.gg
.	.	2c\	2gg\
.	.	1c	1ee
=8	=8	=8	=8
00.r	00.r	1.F	1.ff
.	.	2F/	2ff\
.	.	1F	1cc
=9-	=9-	=9-	=9-
.	.	0c	0ee
.	.	1G	1dd
=10-	=10-	=10-	=10-
0.r	0.r	1D	1ff
.	.	1A	1ee
.	.	1A	1ee
=11-	=11-	=11-	=11-
1.D	1.f#X	00.D	00.dd
2D\	2f#\	.	.
!LO:N:acc=#	!	!	!
1BBn	1g	.	.
=12	=12	=12	=12
1.C	1.e	.	.
2C\	2e\	.	.
1AA	0a	.	.
=13-	=13-	=13-	=13-
1.D	.	00.r	00.r
.	1f	.	.
2C\	.	.	.
1BB-	1d	.	.
=14-	=14-	=14-	=14-
1GG	1g	.	.
1D	1g	.	.
1DD	1f#X	.	.
=15-	=15-	=15-	=15-
0.GG	0.g	0.r	0.r
=16	=16	=16	=16
1.GG	1.d	1.D	1.gg
2GG/	2d\	2D/	2gg\
1GG	1G	1D	1dd
=17-	=17-	=17-	=17-
1.CC	1.G	1.C	1.ee
2CC/	2G/	2C/	2ee\
1CC	1g	1C	1ee
=18-	=18-	=18-	=18-
0FF	0f	0C	0ff
1FF	1f	1C	1cc
=19-	=19-	=19-	=19-
1CC	1g	1C	1ee
1DD	1d	1AA	1dd
1DD	1d	1D	1dd
=20	=20	=20	=20
0GG	0d	0D	0dd
1r	1r	1D	1ff
=21-	=21-	=21-	=21-
0.r	0.r	1.F	1.cc
.	.	2F/	2cc\
.	.	1F	1cc
*custos:GG	*custos:d	*custos:C	*custos:ee
!LO:LB:g=original	!LO:LB:g=original	!LO:LB:g=original	!LO:LB:g=original
=22	=22	=22	=22
*	*	*col	*col
0.r	0.r	1C	1ee
.	.	0G	0dd
*	*	*Xcol	*Xcol
=23-	=23-	=23-	=23-
1r	1r	0C	0ee
1r	1r	.	.
1GG	1d	1D	1dd
=24	=24	=24	=24
1.BB-	1.d	1.D	1.dd
2BB-/	2f\	2D/	2dd\
1AA	1c	1C	2ee\
.	.	.	2cc\
=25-	=25-	=25-	=25-
*col	*col	*col	*
1FF	1c	1C	0ff
0CC	0c	0C	.
.	.	.	1ee
*Xcol	*Xcol	*Xcol	*
=26-	=26-	=26-	=26-
*M2/1	*M2/1	*M2/1	*M2/1
*met(C|)	*met(C|)	*met(C|)	*met(C|)
1FF	1c	2.C/	2ff\
.	.	.	2cc\
.	.	4F/	.
!LO:SIC:v:t=rytm	!	!	!
!LO:N:vis=0r	!	!	!
1r	1r	2D/	2dd\
.	.	2A\	2ee\
=27	=27	=27	=27
00r	00r	4D/	4ff\
.	.	2d\	2ff\
.	.	4c\	4ee\
.	.	2B-\	2dd\
.	.	2B-\	2dd\
=28-	=28-	=28-	=28-
.	.	4A\	4cc#X\
.	.	4A\	4ee\
.	.	4F/	4ff\
.	.	4D/	4ff\
.	.	2A\	2ee\
.	.	4D/	4dd\
.	.	[<4d\	[<4ff\
=29	=29	=29	=29
1r	1r	4d\]	4ff\]
.	.	4A\	4cc\
.	.	4B-\	4dd\
.	.	4G\	4ee\
2r	2r	1F	1ff
4r	4r	.	.
2FF/	2a\	.	.
=30-	=30-	=30-	=30-
.	.	1r	1r
4C\	4e\	.	.
4BB-/	4f\	.	.
4GG/	4g\	.	.
1FF	1c	2r	2r
.	.	4F/	4cc\
.	.	4F/	4cc\
=31	=31	=31	=31
1r	1r	4B-\	4dd\
.	.	4G\	4ee\
.	.	2d\	2ff\
2r	2r	1c	1ee
4C\	4g\	.	.
4C\	4g\	.	.
*custos:F	*custos:a	*custos:d	*custos:ff
!LO:LB:g=original	!LO:LB:g=original	!LO:LB:g=original	!LO:LB:g=original
=32-	=32-	=32-	=32-
4F\	4a\	1r	1r
4D\	4f\	.	.
2A\	2e\	.	.
1D	1d	2r	2r
.	.	4d\	4ff\
.	.	4d\	4ff\
=33	=33	=33	=33
2r	2r	2A\	2ee\
4D\	4f\	2D/	2dd\
4D\	4f\	.	.
2AA/	2e\	2r	2r
2D\	2d\	4d\	4a/
.	.	4d\	4a/
=34-	=34-	=34-	=34-
2r	2r	2B-\	2dd\
4FF/	4f\	2F/	2cc\
4FF/	4f\	.	.
2C\	2e\	2r	2r
2GG/	2d\	4G\	4dd\
.	.	4G\	4dd\
=35	=35	=35	=35
4D\	4d\	4A\	4ff\
4D\	4d\	4A\	4ff\
4BB-/	4d\	2B-\	1ff
4BB-/	4d\	.	.
2FF/	2f\	2F/	.
4C\	4c/	4r	4ee\
2GG/	2d\	2G\	2dd\
=36-	=36-	=36-	=36-
.	.	.	.
4GG/	4d\	4G\	4dd\
1BB-	1d	1F	2.dd\
.	.	.	4ee\
2FF/	2c/	2F/	4ff\
.	.	.	4cc\
=37	=37	=37	=37
0CC	2g\	2G\	2ee\
.	2c/	2F/	2.ff\
.	1c	1G	.
.	.	.	8ee\
.	.	.	8dd\
.	.	.	2ee\
=38-	=38-	=38-	=38-
00FF/	00A\	00F\	00ff\
==	==	==	==
*-	*-	*-	*-
!!!system-decoration: g1
!!!RDF**kern: l = terminal long
!!!RDF**kern: > = above
!!!RDF**kern: < = below
!!!ENC: Andrzej Gręziak
!!!END: 2021-12-17
!!!EED: Jędrzej Mróz
!!!EEV: 2021-12-23
!!!YEC: Copyright 2022 Narodowy Instytut Fryderyka Chopina (https://polishscores.org)
!!!YEM: License CC-BY-4.0 (https://creativecommons.org/licenses/by/4.0)
